X:440
T: BEI WATERLOO STAND EINE EICHE
N: E0358C
O: Europa, Mitteleuropa, Deutschland, Hessen, Wetterau
R: historisches Lied, Krieg gegen Napoleon (1815)
M: 4/4
L: 1/16
K: F
C4 | A6A2G2G2A2G2 | F4c4A2
A2G2A2 | c6B2A3Ac3A | G8z4
F2A2 | c6A2c3Ac3f | d4d4z2
c2B2A2 | G6A2B3dc3B | B4A4z4
F2A2 | c6A2c3Ac3f | d4d4z2
c2B2A2 | G6A2B3dc3B | B4A4z4

@@@ Tune index: 4090
